X: 26812
T: Milliner's Daughter, The
R: reel
M: 4/4
K: Gmajor
G2BG DGBG|A2(3efg fdcA|G2BG DGBd|cAFG AGGF|
G2BG DGBG|A2(3efg fdcA|GB~B2 FA~A2|cAFG AGG2||
dg~g2 dg~g2|df~f2 df~f2|dg~g2 bgag|d^cde fd=cA|
dg~g2 bgag|d^cde ~f3g|afge fde^c|d^cde fd=cA||

